X:1
T:Title
%%score { 1 | ( 2 3 ) }
L:1/8
M:4/4
K:Bb
V:1 treble nm="Grand Piano"
V:2 bass 
V:3 bass 
V:1
 z4 z z/[Q:1/4=100] D/ E>D | ^F>E G>F A>G F>E | D4- D>D E>D | ^F>E G>F A>G F>E | %4
[M:11/16] D/-D/-D/-D/-D/-D/-D/-D-<D |[M:5/16] A<[Ad][Ac]/ |[M:4/4] B>A G>^F G>A c>B | %7
 [^FA]4- [FA]>[DG] [Gc]>[GB] | A>G ^F>G A>G B>A |[M:11/16] G/-G/-G/-G/-G/-G/-G/-G-<G | %10
[M:5/16] A<[Ad][Ac]/ |[M:4/4] B>A G>^F G>A c>B | [^FA]4- [FA]>[DG] [Gc]>[GB] | A>G ^F>G A>G B>A | %14
[M:11/16] G/-G/-G/-G/-G/-G/-G/-G-<G |[M:5/16] A<c=B/ |[M:4/4] [Ec]4- [Ec]>[E=B] [Ed]>[Ec] | %17
 B2 A2- A>A c>=B | [Ec]4- [Ec]>[E=B] [Ed]>[Ec] | B2 A2- A>A B>[^FA] | G4- G>B A>G | %21
[M:11/16] [FA]-<[FA][DF]/-[DF]/-[DF]/-[DF]-<[DF] |[M:5/16] [DF]<[FA]G/ |[M:4/4] F4- FD E>F | %24
[M:11/16] [EG]-<[EG]E-<ED3/2 |[M:5/16] F<[FA]G/ |[M:4/4] F4- FD E>F | %27
[M:11/16] [EG]-<[EG]E-<ED3/2 |] %28
V:2
 z4 z z/ [D,G,B,]/ [D,G,B,]>[D,G,B,] | C>C[K:treble] E>E E>E E>C | %2
 [D,G,B,]4- [D,G,B,]>[D,G,B,] [D,G,B,]>[D,G,B,] | C>[K:treble]C E>E E>E E>C | %4
[M:11/16][K:bass] [D,G,B,]/-[D,G,B,]/-[D,G,B,]/-[D,G,B,]/-[D,G,B,]/-[D,G,B,]/-[D,G,B,]/-[D,G,B,]-<[D,G,B,] | %5
[M:5/16] [F,A,D]<[F,D][F,D]/ | %6
[M:4/4][K:treble] [G,DG]>[G,DG] [G,B,D]>[G,B,D] [G,B,D]>[G,B,D] [G,DG]>[G,DG] | %7
 [D,D]4- [D,D]>[D,C] [D,C]>[D,C] | %8
 [^F,A,D]>[F,A,D] [F,A,D]>[F,A,D] [F,A,D]>[F,A,D] [F,A,D]>[F,A,D] | %9
[M:11/16] [G,B,D]/-[G,B,D]/-[G,B,D]/-[G,B,D]/-[G,B,D]/-[G,B,D]/-[G,B,D]/-[G,B,D]-<[G,B,D] | %10
[M:5/16] [F,A,D]<[F,D][F,D]/ | %11
[M:4/4][K:treble] [G,DG]>[G,DG] [G,B,D]>[G,B,D] [G,B,D]>[G,B,D] [G,DG]>[G,DG] | %12
 [D,D]4- [D,D]>[D,C] [D,C]>[D,C] | %13
 [^F,A,D]>[F,A,D] [F,A,D]>[F,A,D] [F,A,D]>[F,A,D] [F,A,D]>[F,A,D] | %14
[M:11/16] [G,B,D]/-[G,B,D]/-[G,B,D]/-[G,B,D]/-[G,B,D]/-[G,B,D]/-[G,B,D]/-[G,B,D]-<[G,B,D] | %15
[M:5/16] [G,B,E]<[G,CE][G,CE]/ |[M:4/4] [C,G,]4- [C,G,]>[C,G,] [C,G,]>[C,G,] | %17
 [D,^F,D]2 [D,F,D]2- [D,F,D]>[G,B,E] [G,CE]>[G,CE] | [C,G,]4- [C,G,]>[C,G,] [C,G,]>[C,G,] | %19
 [D,^F,D]2 [D,F,D]2- [D,F,D]>[D,F,D] [D,F,D]>[D,A,] | [G,B,D]4- [G,B,D]>[G,B,D] [G,B,D]>[G,B,D] | %21
[M:11/16] [D,A,]-<[D,A,][D,A,]/-[D,A,]/-[D,A,]/-[D,A,]-<[D,A,] |[M:5/16] [D,A,]<[D,D][D,A,D]/ | %23
[M:4/4] [D,A,D]4- [D,A,D][F,A,] [E,A,C]>[D,A,D] | %24
[M:11/16] [C,A,]-<[C,A,][C,G,C]-<[C,G,C][D,G,B,]3/2 |[M:5/16] [D,A,D]<[D,D][D,A,D]/ | %26
[M:4/4] [D,A,D]4- [D,A,D][F,A,] [E,A,C]>[D,A,D] | %27
[M:11/16] [C,A,]-<[C,A,][C,G,C]-<[C,G,C][D,G,B,]3/2 |] %28
V:3
 x8 | [C,A,]8[K:treble] | x8 | [C,A,]8[K:treble] |[M:11/16][K:bass] x11/2 |[M:5/16] x5/2 | %6
[M:4/4][K:treble] x8 | x8 | x8 |[M:11/16] x11/2 |[M:5/16] x5/2 |[M:4/4][K:treble] x8 | x8 | x8 | %14
[M:11/16] x11/2 |[M:5/16] x5/2 |[M:4/4] x8 | x8 | x8 | x8 | x8 |[M:11/16] x11/2 |[M:5/16] x5/2 | %23
[M:4/4] x8 |[M:11/16] x11/2 |[M:5/16] x5/2 |[M:4/4] x8 |[M:11/16] x11/2 |] %28

